Breeze Round Light/actions/22/labplot-xy-plot-four-axes.svg

<svg xmlns="http://www.w3.org/2000/svg" viewBox="0 0 22 22">
  <defs id="defs3051">
<style type="text/css" id="current-color-scheme">.ColorScheme-Text {color:#fcfcfc;}</style>
  </defs>
 <path 
     style="fill:currentColor;fill-opacity:1;stroke:none" 
     d="m 3,5 c 0,2 0,10 0,12 0,2 2,2 2,2 0,0 11,0 13,0 2,0 2,-2 2,-2 C 20,17 20,7 20,5 20,3 18,3 18,3 H 5 C 5,3 3,3 3,5 Z M 4,5 C 4,4 5,4 5,4 H 17.71875 L 17.25,4.46875 16.4375,5.28125 15.125,6.59375 13,4.46875 11.46875,6 11,6.46875 10.15625,7.28125 8.46875,9 H 7 6 5 4 C 4,9 4,6 4,5 Z M 19,4.125 v 13.71875 l -0.28125,-0.28125 -0.75,-0.75 L 17.125,16 15.84375,14.6875 15.125,14 13,16.09375 11.6875,14.8125 10.875,14 l -2,-2 H 7 6 5 4 v -2 h 1 1 1 1.875 l 2,-2 L 11.6875,7.15625 13,5.875 15.125,8 l 2,-2 0.84375,-0.84375 z M 4,13 h 1 1 1 1.46875 l 1.6875,1.6875 L 11,15.53125 11.46875,16 13,17.53125 13.53125,17 15.125,15.40625 l 1.3125,1.28125 0.5,0.53125 0.3125,0.3125 0.03125,0.03125 L 17.71875,18 H 5 c 0,0 -1,0 -1,-1 0,-1 0,-4 0,-4 z"
     class="ColorScheme-Text"
     />
</svg>

<svg xmlns="http://www.w3.org/2000/svg" viewBox="0 0 22 22">
  <defs id="defs3051">
    <style type="text/css" id="current-color-scheme">
      .ColorScheme-Text {
        color:#232629;
      }
      </style>
  </defs>
 <path 
     style="fill:currentColor;fill-opacity:1;stroke:none" 
     d="M 3 3 L 3 19 L 4 19 L 20 19 L 20 18 L 20 3 L 4 3 L 3 3 z M 4 4 L 17.71875 4 L 17.25 4.46875 L 16.4375 5.28125 L 15.125 6.59375 L 13 4.46875 L 11.46875 6 L 11 6.46875 L 10.15625 7.28125 L 8.46875 9 L 7 9 L 6 9 L 5 9 L 4 9 L 4 4 z M 19 4.125 L 19 17.84375 L 18.71875 17.5625 L 17.96875 16.8125 L 17.125 16 L 15.84375 14.6875 L 15.125 14 L 13 16.09375 L 11.6875 14.8125 L 10.875 14 L 8.875 12 L 7 12 L 6 12 L 5 12 L 4 12 L 4 10 L 5 10 L 6 10 L 7 10 L 8.875 10 L 10.875 8 L 11.6875 7.15625 L 13 5.875 L 15.125 8 L 17.125 6 L 17.96875 5.15625 L 19 4.125 z M 4 13 L 5 13 L 6 13 L 7 13 L 8.46875 13 L 10.15625 14.6875 L 11 15.53125 L 11.46875 16 L 13 17.53125 L 13.53125 17 L 15.125 15.40625 L 16.4375 16.6875 L 16.9375 17.21875 L 17.25 17.53125 L 17.28125 17.5625 L 17.71875 18 L 4 18 L 4 13 z "
     class="ColorScheme-Text"
     />
</svg>
